X:1
T:The Holy Dawn
T:George Wicker Elderkin
T:The Holy Dawn
T:Public Domain
T:Public Domain
T:Public Domain
C:George Wicker Elderkin
Z:Public Domain
%%score ( 1 2 ) ( 3 4 )
L:1/8
M:4/4
K:Eb
V:1 treble 
V:2 treble 
V:3 bass 
V:4 bass 
V:1
 G2 | G2 GG B2 BB | [Ee]2 [Ge]2 [Ae]2 ee | e2 dc (cB) [=FA]2 | (E4 F2) GG | G2 ce [Fd]2 cG | %6
w: 1.~The|sol- diers were guard- ing the|tomb, At the close of|Sab- bath day; And * the|lay * deep in|gar- den gloom Where the bo-|
w: 2.~The|grave was made sure and the|sealed, Lest His friends steal|way the Lord, And * the|the * torch- es|guards re- vealed, In o- be-|
w: 3.~The|an- gel of God rolled the|way From the door of|Sav- ior’s tomb, And * the|ly * dawn of|East- er day Had dis- pelled|
 [GB]2 [FA]2 [CEG]2 CD | E2 EE F2 ^F2 | [=B,G]6 GG | (GF)GA cB[EG][B,E] | [CE]2 [CF]2 [B,D]2 DD | %11
w: Je- sus lay; For the|had re- mem- ber- èd|was said, That|the * Sav- ior should rise a- gain|tomb. And the watch was|
w: Pi- late’s word. Lo, an|quake was sent and Je-|was rent And|the * keep- ers did shake, to earth|reeled. And the watch was|
w: night of gloom; And the|gel then told un- to|men there, Th-|e * Mas- ter hath ris’n, O see|lay. Oh, the ho- ly|
 (3DDD D>D d2 d>d | G6 [EG][EA] | [DG]2 [DF]2 [DB]2 [DF][DG] | [DF]2 E2 [EB]2 [GB][Ge] | %15
w: kept while the Sav- ior slept, And His|wept, for He|no more, And His loved|ones wept, for He was|
w: kept while the Sav- ior slept, And His|wept, for He|no more, And His loved|ones wept, for He was|
w: dawn of the East- er morn, How it|night in- to|so bright, How it turns|our night in- to day|
 [Ad]2 [FA]2 [Ad]2 [DF][DG] | [DA]2 [FB]2 [EG]2 [EG][EG] | [DG]2 [DF]2 E2 [CE][CF] | %18
w: more. * * * *|||
w: more. * * * *|||
w: bright. * * * *|||
 [B,E]2 [B,D]2 [B,E]2 |] %19
w: |
w: |
w: |
V:2
 x2 | E4 F4 | x6 A2 | ^F4 G2 x2 | G6 x2 | E4 E2 x2 | C4 x4 | C4 C4 | x8 | D4 E2 x2 | x8 | %11
w: |Sav- ior’s|the|sha- dows|the|dy of|priests|that it||from the||
w: |stone was|a-|light of|the|dience to|earth-|sus’ tomb||then they||
w: |stone a-|the|fair, ho-|the|all the|an-|the wo-||where He||
 B,2 x4/3 ^F4 x2/3 | G6 x2 | x8 | x2 E2 x4 | x8 | x8 | x4 E2 x2 | x6 |] %19
w: loved ones|was||no|||||
w: loved ones|was||no|||||
w: turns our|day||so|||||
V:3
 z2 | [E,B,]4 [D,B,]4 | [B,,C]2 [E,_D]2 [A,C]2 [A,C]2 | [=A,C]4 B,2 D,2 | ([E,B,]4 [D,=B,]2) z2 | %5
 C2 G,2 [D,=B,]2 [E,C]2 | F,4 [C,G,]2 z2 | [C,G,]4 (A,E,) D,2 | [G,,D,]6 z2 | (B,A,)G,F, G,2 B,G, | %10
 [C,G,]2 [A,,A,]2 [B,,F,]2 z2 | [G,,G,]2 z2 C2 D>C | [G,,D,G,B,]6 [E,B,][E,C] | %13
 [B,,B,]2 [B,,B,]2 [B,,F,]2 [B,,B,][B,,B,] | [E,A,]2 [E,G,]2 [E,G,]2 [E,E][E,B,] | %15
 [F,B,]2 [D,B,]2 [F,B,]2 [B,,A,][B,,G,] | [B,,F,]2 [D,B,]2 [E,B,]2 [E,B,][E,B,] | %17
 [B,,B,]2 [B,,A,]2 [C,G,]2 [A,,A,][F,,A,] | [B,,G,]2 [B,,F,]2 [E,G,]2 |] %19
V:4
 x2 | x8 | x8 | x4 B,4 | x8 | C,4 x4 | x8 | x4 C,4 | x8 | B,,4 E,4 | x8 | x4 D,4 | x8 | x8 | x8 | %15
 x8 | x8 | x8 | x6 |] %19

